X:2358
T:Green Cockade, The
T:O'Neill's March
O:england
R:march
D:Paddy Keenan: Port an Phiobaire
D:Chieftains Live
M:2/4
L:1/8
K:Ador
eA AB/d/|e/g/e/d/ Bd|eA A/c/B/A/|GG/A/ B/G/B/d/|
eA AB/d/|e/g/e/d/ Bd|e/d/e/f/ gB|A2 A2:|
|:ea ag/a/|bb/a/ gg/f/|e/d/B/d/ gg/e/|d/c/B/A/ G/A/B/G/|
ea ag/a/|bb/a/ gg/e/|dB gB|A2 A2:|


